X:1
T:Title
L:1/8
Q:1/4=120
M:6/8
K:Eb
V:1 treble nm="Grand Piano"
V:1
 z2 G G2 G | A2 G F2 E | G6 | C6- | C2 G G2 G | A2 G F2 =E | F6 | D6 | z2 F F2 F | G2 F E2 D | F6 | %11
 D6- | D2 F F2 F | G2 F E2 D | E6 | C6 | z2 e d2 c | =B2 c d2 e | d6 | c6- | c2 e d2 c | %21
 =B2 c d2 e | d6 | c6 | z2 B B2 B | c2 B A2 G | B2 A G2 F | G6- | G2 D F2 E | D3 C3- | C2 D F2 E | %31
[M:15/16] D3 C3/2- C3 |] %32

